X: 32277
T: Piercestown, The
R: hornpipe
M: 4/4
K: Fmajor
|:C/D/E|FC A,/B,/C F,G,A,F|A/G/F EF CFAF|BFBc dc c/=B/c|ec=Bc _B/=B/c EG|
FC A,/B,/C F,G,A,F|A/G/F EF CFAF|DFBF dc=B=c|1 ec B/A/G F2:|2 ec B/A/G FGAB|
|:cf f/e/f cfaf|dfcf AcFA|cf f/e/f cfaf|gdga bceg|
cf f/e/f cfaf|dfcf AcFA|EFGA BCDE|1 F2 E/F/G FGAB:|2 F2 E/F/G F2|

